!!!COM: Beethoven
!!!OTL: Zehn Variationen uber "la stessa, la stessissima" aus "Falstaff" von A. Salieri
!!!Variation: Variation 10 c
**function	**harm	**kern	**kern
*	*	*clefF4	*clefG2
*	*	*k[b-e-]	*k[b-e-]
*M3/8	*M3/8	*M3/8	*M3/8
*B-:	*B-:	*B-:	*B-:
=212	=212	=212	=212
4.T	4.V/vi	16F#LL	8r
.	.	16E-	.
.	.	16D	8ddL
.	.	16C	.
.	.	16BB-	8ddJ
.	.	16AAJJ	.
=213	=213	=213	=213
4.T	4.i/vi	16GGLL	4gg
.	.	16d	.
.	.	16B-	.
.	.	16d	.
.	.	.	q8aa
.	.	16G	(32ggLLL
.	.	.	32ff#
.	.	16dJJ	32gg
.	.	.	32aaJJJ)
=214	=214	=214	=214
4.T	4.i/vi	16GLL	4bb-'
.	.	16d	.
.	.	16B-	.
.	.	16d	.
.	.	16G	8gg'
.	.	16dJJ	.
=215	=215	=215	=215
4.T	4.V7b/V/vi	16F#LL	4aa'
.	.	16d	.
.	.	16A	.
.	.	16d	.
.	.	16F#	(8cc#
.	.	16dJJ	.
=216	=216	=216	=216
4.T	4.V7b/V/vi	16F#LL	4dd)
.	.	16d	.
.	.	16A	.
.	.	16d	.
*	*	*	*clefF4
.	.	16F#	(8C#
.	.	16dJJ	.
=217	=217	=217	=217
4.T	4.V7b/V/vi	16F#LL	4D)
.	.	16d	.
.	.	16A	.
.	.	16d	.
*	*	*	*clefG2
.	.	.	q8bb-
.	.	16F#	(32aaLLL
.	.	.	32gg
.	.	16dJJ	32aa
.	.	.	32bb-JJJ)
=218	=218	=218	=218
4.T	4.V7b/V/vi	16F#LL	4ccc'
.	.	16d	.
.	.	16A	.
.	.	16d	.
.	.	16F#	8aa'
.	.	16dJJ	.
=219	=219	=219	=219
4.T	4.i/vi	16GLL	4bb-'
.	.	16d	.
.	.	16B-	.
.	.	16d	.
.	.	16G	(8f#
.	.	16dJJ	.
=220	=220	=220	=220
4.T	4.i/vi	16GLL	4g)
.	.	16d	.
.	.	16B-	.
.	.	16d	.
*	*	*	*clefF4
.	.	16G	(8FF#
.	.	16dJJ	.
=221	=221	=221	=221
4.T	4.i/vi	16GLL	4GG)
.	.	16d	.
.	.	16B-	.
.	.	16d	.
*	*	*	*clefG2
.	.	.	q8ccc
.	.	16G	(32bb-LLL
.	.	.	32aa
.	.	16dJJ	32bb-
.	.	.	32cccJJJ)
=222	=222	=222	=222
4.T	4.i/vi	16GLL	4ddd'
.	.	16d	.
.	.	16B-	.
.	.	16d	.
.	.	16G	8bb-'
.	.	16dJJ	.
=223	=223	=223	=223
4.T	4.ib/v/vi	16FLL	16.aa'LL
.	.	16d	.
.	.	.	(32aaJJk
.	.	16A	4ddd)
.	.	16d	.
.	.	16F	.
.	.	16dJJ	.
=224	=224	=224	=224
4.P	4.iiob/v/vi	16GLL	16.gg'LL
.	.	16e	.
.	.	.	(32ggJJk
.	.	16B-	4bb-)
.	.	16e	.
.	.	16G	.
.	.	16eJJ	.
=225	=225	=225	=225
4.D	4.Cc/v/vi	16ALL	16.ff'LL
.	.	16f	.
.	.	.	(32ffJJk
.	.	16d	4aa)
.	.	16f	.
.	.	16A	.
.	.	16fJJ	.
=226	=226	=226	=226
4.D	4.V7/v/vi	16ALL	16.ee'LL
.	.	16g	.
.	.	.	(32eeJJk
.	.	16c#	4aa)
.	.	16g	.
.	.	16A	.
.	.	16gJJ	.
=227	=227	=227	=227
4.T	4.i/v/vi	4d 4f	16ddLL
.	.	.	16b-
.	.	.	16a
.	.	.	16g
.	.	8r	16f
.	.	.	16eJJ
*-	*-	*-	*-
